X:1
T:Diteli voi
T:Diteli voi  
T:Giulio Caccini (1548-1618)
T:Source: Nuove musiche---1601. Edtor: André Vierendeels (ca.1960) 
T:Aria quarta
T:Notes : Original clefs : C1; F4 Figures in BC are notated in original print Last part of a 4-part sonnet. See also p.1 "Fere selvaggie", p.2 "Fillide mia" and p. 3 "Per lei mi" Lyrics by Francesco Cini.
C:Giulio Caccini
C:(1548-1618)
%%score 1 { 2 | 3 }
L:1/8
Q:1/4=120
M:2/2
K:C
V:1 treble-8 nm="Tenor" snm="T"
V:2 treble nm="MusicXML Part"
V:3 bass 
V:1
 d6 c>B | B4 B4 | e2 e2 c3 B | A4 A4 | z2 A2 A3 G | A4 A4 | ^F2 G2 A2 A2 | B4 B4 | d2 dd e2 ^c2 | %9
w: Di- te- li|vo- i|se di mi vi-|ca- le|ch'il mio gran|ma- le|vien da gl'oc- chi|suo- i.|Di- te- li che ri-|
 d4 B4 | ^G2 GG A2 E2 | ^F2 F2 G2 GA | B2 c2 d4- | d2 c2 B3 c | d2 c>d e2 A2 | A8 | G8 :| %17
w: mi- ri,|di- te- li che ri-|mi- ri, men- tre ch'io|mo- ro'al me-|* no mie- *|i _ _ _ mar-|ti-|ri.|
V:2
 z8 | z8 | z8 | z8 | z8 | z8 |"^6       6" z8 | z8 | z8 | z8 | z8 | z8 | z8 | z8 | z8 | z8 | z8 :| %17
V:3
 G,4 ^F,4 | G,4 G,4 | A,,4 C,4 | D,4 D,,4 |"^7      #  6" D,4 E,4 | D,4 D,,4 | D,2 B,,2 C,2 D,2 | %7
 G,,4 G,,4 | G,4 E,2 A,2 | ^F,4 G,4 | E,4 ^C,4 | D,4 G,2 G,,2- | G,,2 A,,2 B,,2 A,,G,, | %13
 ^F,,4 G,,4 | D,4 ^C,4 |"^11     # 10      14" D,4 D,2 D,2 | G,,8 :| %17

